X: 24963
T: Maid Of Bellevue, The
R: jig
M: 6/8
K: Dmajor
|:FG|ABA FAd|f2 d AFD|GFG Eec|dfe dFG|
A2 A FAd|f2 d A2 F|GFG Eec|d3- d:|
|:ef|gec efg|fdA FAd|c2 e cAe|d2 f dAf|
gfg eag|fdA F2 d|cAe cAe|d3- d:|

